X:1
T:His Love Passeth Knowledge
T:John Robson Sweney
T:His Love Passeth Knowledge
T:Public Domain
T:Public Domain
C:John Robson Sweney
Z:Public Domain
%%score ( 1 2 ) ( 3 4 )
L:1/8
M:4/4
K:Bb
V:1 treble 
V:2 treble 
V:3 bass 
V:4 bass 
V:1
 [DB][Ec] | [Fd]2 [DB][EG] [DF]2 [B,D][CE] | [DF]2 [DB][DB] [DB]2 [DB][DB] | %3
w: 1.~There is|joy in my soul, for the|Sav- ior is mine, I am|
w: 2.~There is|joy in my soul that will|ne- ver de- part, My re-|
w: 3.~There is|joy in my soul though the|clouds may a- rise, Yet the|
w: 4.~There is|joy in my soul, there is|rap- ture and rest, In my|
 [DB]2 [EA][DB] [Fc]2 [Fc][Fc] | [Fc]2 [FB][Fc] [Fd]2 [DF][DF] | [DF]2 [B,D][CE] [DF]2 [DB][Ec] | %6
w: wear- ing the pledge of His|Spir- it di- vine; Ev- ery|prom- ise by faith through His|
w: deem- er has made His a-|bode in my heart; From the|tempt- er and sin I am|
w: bow of His mer- cy ne’er|fades from the skies; I am|stand- ing by faith where the|
w: Sav- ior and Lord I am|per- fect- ly blest; ’Twill be|on- ly a step ere my|
 [Fd]2 [DB][EG] [DF]2 [DF][DF] | [EG]2 [Ge][Ge] [Ge] [Fd]2 [DB] | [Ec]2 [DB][EA] [DB]2 || %9
w: grace I may claim, Oh, His|love pass- eth know- ledge, all|praise to His name.|
w: kept ev- ery hour, Oh, His|love pass- eth know- ledge, so|great is its power.|
w: pure wa- ters glide, Oh, His|love pass- eth know- ledge, so|deep and so wide.|
w: feet press the shore, Then “His|love pass- eth know- ledge,” I’ll|shout ev- er- more.|
"^Refrain" [DB][DB] | [Fc]2 FF F2 [FB][Gc] | [Fd]2 [DB][DB] [DB]2 [DF][DF] | %12
w: |||
w: |||
w: |||
w: |||
 [EG] [GB]2 [EG] [DF]2 [DB][Fd] | [Fc]2 [=Ec][Ec] [Fc]2 [_EF][EF] | [DF]2 [FB][FB] (BA)[FA][FB] | %15
w: |||
w: |||
w: |||
w: |||
 [Fc]2 [FB][Fc] [Fd]2 [Ff][Ff] | [Ff]2 [Fd][FB] (cB)[EG][EB] | [DF]2 [Ec]>[Fd] [DB]2 |] %18
w: |||
w: |||
w: |||
w: |||
V:2
 x2 | x8 | x8 | x8 | x8 | x8 | x8 | x8 | x6 || x2 | x2 FF F2 x2 | x8 | x8 | x8 | x4 F2 x2 | x8 | %16
 x4 G2 x2 | x6 |] %18
V:3
 [B,,F,][B,,F,] | [B,,B,]2 [B,,F,][B,,B,] [B,,B,]2 [B,,F,][B,,F,] | %2
w: ~ ~|~ ~ ~ ~ ~ ~|
 [B,,B,]2 [B,,F,][B,,F,] [B,,F,]2 [B,,F,][B,,F,] | F,2 [F,C][F,B,] [F,A,]2 [F,A,][F,A,] | %4
w: ~ ~ ~ ~ ~ ~|~ ~ ~ ~ ~ ~|
 [F,A,]2 [F,G,][F,A,] [B,,B,]2 [B,,B,][B,,B,] | [B,,B,]2 [B,,F,][B,,F,] [B,,B,]2 [B,,F,][B,,F,] | %6
w: ~ ~ ~ ~ ~ ~|~ ~ ~ ~ ~ ~|
 [B,,B,]2 [B,,B,][B,,B,] [B,,B,]2 [B,,B,][B,,B,] | [E,B,]2 [E,B,][E,B,] [B,,B,] [B,,B,]2 [B,,B,] | %8
w: ~ ~ ~ ~ ~ ~|~ ~ ~ ~ ~ ~|
 [F,A,]2 [F,B,][F,C] [B,,B,]2 || [A,,B,][B,,B,] | [F,A,]2 [F,A,][F,A,] (F,E,)[D,B,][C,A,] | %11
w: ~ ~ ~ There|is joy|in my soul, there * is joy|
 [B,,B,]2 [B,,F,][B,,F,] [B,,F,]2 [B,,B,][B,,B,] | [E,B,] [E,B,]2 [E,B,] [B,,B,]2 [B,,B,][B,,B,] | %13
w: my song, I am near- ing|the gates of the bright, shin-|
 [C,A,]2 [C,G,][C,G,] [F,A,]2 [F,A,][F,A,] | [B,,B,]2 [B,,D][B,,D] (DC)[F,C][F,D] | %15
w: ing throng; And I list to|the mu- sic of * E- den|
 [F,E]2 [F,D][F,A,] B,2 [B,D][B,D] | [B,D]2 B,[B,D] [E,E]2 [E,B,][E,G,] | %17
w: fair, Hal- le- lu- jah to|sus, I soon shall be there.|
 [F,B,]2 [F,A,]>[F,A,] [B,,B,]2 |] %18
w: |
V:4
 x2 | x8 | x8 | F,2 x6 | x8 | x8 | x8 | x8 | x6 || x2 | x4 A,2 x2 | x8 | x8 | x8 | x4 F,2 x2 | %15
w: |||~|||||||in||||so|
 x4 B,2 x2 | x2 B, x5 | x6 |] %18
w: Je-|||

